!!!COA: des Prez, Josquin
!!!CDT: ~1450-1521/08/27
!!!ONB: Intabulation in BerlS 40026
!!!OTL: Inter natos mulierum
!!!AGN: Motet
!!!SCT: NJE 19.9
!!!SCA: New Josquin Edition 19.9
!!!voices: 5
**kern	**kern	**kern	**kern	**kern
*part5	*part4	*part3	*part2	*part1
*staff5	*staff4	*staff3	*staff2	*staff1
*Ivox	*Ivox	*Ivox	*Ivox	*Ivox
*I"Bassus	*I"Tenor2	*I"Tenor	*I"Altus	*I"Superius
*I'B	*I'T2	*I'T	*I'A	*I'S
*clefF4	*clefF4	*clefF4	*clefF4	*clefG2
*k[]	*k[]	*k[]	*k[]	*k[]
*a:	*a:	*a:	*a:	*a:
*M3/1	*M3/1	*M3/1	*M3/1	*M3/1
*met(O)	*met(O)	*met(O)	*met(O)	*met(O)
=	=	=	=	=
0.r	2.d	0.r	0D	0d
.	4e	.	.	.
.	2d	.	.	.
.	8eL	.	.	.
.	8d	.	.	.
.	8c	.	.	.
.	8BJ	.	.	.
.	2A	.	1D	1f
.	8FL	.	.	.
.	8G	.	.	.
.	8A	.	.	.
.	8BJ	.	.	.
=3	=3	=3	=3	=3
0.r	2c	0.r	2C	2e
.	2.d	.	1BB-X	2.f
.	4c	.	.	4e
.	8dL	.	2C	8fL
.	8c	.	.	8e
.	8B	.	.	8d
.	8AJ	.	.	8cJ
.	1B	.	1G	1d
=4	=4	=4	=4	=4
0.r	2c	0.r	2.C	0c
.	8dL	.	.	.
.	8c	.	.	.
.	8B	.	4D	.
.	8AJ	.	.	.
.	2G	.	2E	.
.	2.A	.	2.F	.
.	.	.	.	1c
.	4G	.	4E	.
.	2E	.	2C	.
=5	=5	=5	=5	=5
0.r	2D	0.r	2F	1f
.	2.d	.	2D	.
.	.	.	1E	1g
.	4c#X	.	.	.
.	8dL	.	.	.
.	8c#X	.	.	.
.	8B	.	.	.
.	8c#XJ	.	.	.
.	4d	.	1D	1f
.	4cni	.	.	.
.	8dL	.	.	.
.	8c	.	.	.
.	8B	.	.	.
.	8AJ	.	.	.
=6	=6	=6	=6	=6
0.r	2G	0.r	2E	2g
.	2D	.	2F	2.a
.	2.F	.	1D	.
.	.	.	.	4g
.	.	.	.	8aL
.	.	.	.	8g
.	4G	.	.	8f
.	.	.	.	8eJ
.	2A	.	2r	8fL
.	.	.	.	8g
.	.	.	.	8a
.	.	.	.	8fJ
.	2B-X	.	2G	2g
=7	=7	=7	=7	=7
0.r	2c	0.r	2F	2a
.	2.d	.	1BB-X	1b-i
.	4c	.	.	.
.	8dL	.	2C	2.a
.	8c	.	.	.
.	8B-X	.	.	.
.	8AJ	.	.	.
.	1B-X	.	2D	.
.	.	.	.	4g
.	.	.	2E	8aL
.	.	.	.	8g
.	.	.	.	8f
.	.	.	.	8gJ
=8	=8	=8	=8	=8
0.r	2A	0.r	1F	1a
.	4c	.	.	.
.	4B-X	.	.	.
.	4A	.	2r	2r
.	4G	.	.	.
.	4F	.	2F	2c
.	4E	.	.	.
.	4F	.	2F	2c
.	4G	.	.	.
.	2A	.	2F	2c
=9	=9	=9	=9	=9
0.r	2.B-X	0.r	1BB-X	8dL
.	.	.	.	8c
.	.	.	.	8d
.	.	.	.	8eJ
.	.	.	.	4d
.	4A	.	.	4c
.	2G	.	2r	4d
.	.	.	.	4e
.	2F	.	2D	2.f
.	1G	.	1C	.
.	.	.	.	4e
.	.	.	.	8fL
.	.	.	.	8e
.	.	.	.	8d
.	.	.	.	8eJ
=10	=10	=10	=10	=10
0.r	2r	0.r	2.F	1.f
.	2.F	.	.	.
.	.	.	4G	.
.	.	.	2A	.
.	4G	.	.	.
.	2A	.	2D	2f
.	2D	.	2A	4r
.	.	.	.	4g
.	2A	.	2F	2a
=11	=11	=11	=11	=11
0.r	4B	0.r	1E	1g
.	4A	.	.	.
.	4B	.	.	.
.	4c	.	.	.
.	1d	.	1D	2f
.	.	.	.	8gL
.	.	.	.	8f
.	.	.	.	8e
.	.	.	.	8fJ
.	2B	.	2r	2g
.	2c	.	2F	2a
=12	=12	=12	=12	=12
0.r	2.d	0.r	2D	4r
.	.	.	.	4g
.	.	.	2F	8aL
.	.	.	.	8g
.	4c	.	.	8f
.	.	.	.	8eJ
.	2B	.	2G	2d
.	8cL	.	2E	2.g
.	8B	.	.	.
.	8A	.	.	.
.	8GJ	.	.	.
.	1A	.	1D	.
.	.	.	.	4f#i
.	.	.	.	8gL
.	.	.	.	8f#i
.	.	.	.	8e
.	.	.	.	8f#XJ
=13	=13	=13	=13	=13
0.r	2.G	0.r	2.G	1g
.	4A	.	4F	.
.	2B	.	2E	2r
.	2c	.	2C	2g
.	1A	.	1D	4r
.	.	.	.	4f#i
.	.	.	.	8gL
.	.	.	.	8f#i
.	.	.	.	8e
.	.	.	.	8f#XJ
=14	=14	=14	=14	=14
0.r	2G	0.r	2.E	2g
.	2c	.	.	8aL
.	.	.	.	8g
.	.	.	4F	8f
.	.	.	.	8eJ
.	2B	.	2G	4d
.	.	.	.	4e
.	2.d	.	2D	4f
.	.	.	.	4g
.	.	.	1A	1e
.	4c#X	.	.	.
.	8dL	.	.	.
.	8c#X	.	.	.
.	8B	.	.	.
.	8c#XJ	.	.	.
=15	=15	=15	=15	=15
0.r	1d	0.r	2.D	1d
.	.	.	4E	.
.	1r	.	2F	2d
.	.	.	2G	2.d
.	1r	.	1D	.
.	.	.	.	4c
.	.	.	.	4d
.	.	.	.	4e
=16	=16	=16	=16	=16
0.r	4d	0.r	2r	2f
.	4c	.	.	.
.	4B	.	2.E	2.g
.	4A	.	.	.
.	2G	.	.	.
.	.	.	4D	4f
.	2.c	.	4C	4e
.	.	.	4BB	4d
.	.	.	1AA	1e
.	4B	.	.	.
.	8cL	.	.	.
.	8B	.	.	.
.	8A	.	.	.
.	8GJ	.	.	.
=17	=17	=17	=17	=17
0.r	2F	0.r	2D	8fL
.	.	.	.	8e
.	.	.	.	8f
.	.	.	.	8dJ
.	2G	.	2C	2e
.	2A	.	2AA	8fL
.	.	.	.	8e
.	.	.	.	8d
.	.	.	.	8eJ
.	2D	.	2BB-X	2.d
.	1E	.	1AA	.
.	.	.	.	4c#i
.	.	.	.	8dL
.	.	.	.	8c#i
.	.	.	.	8B
.	.	.	.	8c#XJ
=18	=18	=18	=18	=18
1r	4D	2r	0D	0d
.	4C	.	.	.
.	4D	2.A	.	.
.	4E	.	.	.
1r	4F	.	.	.
.	4E	4G	.	.
.	4F	4F	.	.
.	4G	4E	.	.
1D	4A	2D	1D	1d
.	4G	.	.	.
.	2A	2F	.	.
=19	=19	=19	=19	=19
0D	1B-X	4r	0BB-X	2d
.	.	4E	.	.
.	.	2F	.	8fL
.	.	.	.	8e
.	.	.	.	8f
.	.	.	.	8gJ
.	2r	2D	.	4f
.	.	.	.	4e
.	4A	2F	.	4d
.	4G	.	.	4c
1D	2F	4r	1BB-X	1B-X
.	.	4E	.	.
.	8FL	2D	.	.
.	8E	.	.	.
.	8F	.	.	.
.	8GJ	.	.	.
=20	=20	=20	=20	=20
0F	2A	0C	0FF	1.c
.	4G	.	.	.
.	4A	.	.	.
.	4B-X	.	.	.
.	4A	.	.	.
.	4G	.	.	2c
.	4F	.	.	.
1F	4A	1F	1FF	4c
.	4G	.	.	4B
.	4A	.	.	4c
.	4B-i	.	.	4d
=21	=21	=21	=21	=21
0E	2c	2.G	0C	1e
.	8dL	.	.	.
.	8c	.	.	.
.	8B-i	4F	.	.
.	8AJ	.	.	.
.	1G	2.E	.	2c
.	.	.	.	2e
.	.	4F	.	.
1E	1c	1G	1C	4r
.	.	.	.	8dL
.	.	.	.	8e
.	.	.	.	8f
.	.	.	.	8e
.	.	.	.	8d
.	.	.	.	8cJ
=22	=22	=22	=22	=22
2D	2d	1G	2.GG	4B
.	.	.	.	4c
2G	2r	.	.	2d
.	.	.	4AA	.
2F	1r	2D	2BB-X	4r
.	.	.	.	4A
2E	.	1G	2C	2c
1D	1d	.	1GG	4r
.	.	.	.	4B
.	.	2G	.	8cL
.	.	.	.	8B
.	.	.	.	8A
.	.	.	.	8BJ
=23	=23	=23	=23	=23
0C	1c	2E	1C	1.c
.	.	2G	.	.
.	2c	2A	2AA	.
.	8eL	2G	2.C	2c
.	8d	.	.	.
.	8e	.	.	.
.	8fJ	.	.	.
1r	4e	1E	.	2r
.	4d	.	4BB	.
.	4c	.	4AA	2e
.	4B	.	4GG	.
=24	=24	=24	=24	=24
0F	1A	2C	0FF	2f
.	.	2D	.	2d
.	2r	1C	.	2f
.	2A	.	.	8gL
.	.	.	.	8f
.	.	.	.	8e
.	.	.	.	8dJ
1F	4A	1F	1FF	2.c
.	4G	.	.	.
.	4A	.	.	.
.	4B	.	.	4d
=25	=25	=25	=25	=25
0G	1c	2E	0C	8eL
.	.	.	.	8d
.	.	.	.	8e
.	.	.	.	8fJ
.	.	1G	.	4e
.	.	.	.	4d
.	2r	.	.	2e
.	2c	2E	.	8fL
.	.	.	.	8e
.	.	.	.	8d
.	.	.	.	8eJ
1F	4A	1r	1D	1f
.	4G	.	.	.
.	4A	.	.	.
.	4B	.	.	.
=26	=26	=26	=26	=26
1G	1c	1E	1C	2e
.	.	.	.	8fL
.	.	.	.	8e
.	.	.	.	8d
.	.	.	.	8cJ
4G	1r	0D	0BB-X	0d
4A	.	.	.	.
4B-X	.	.	.	.
4A	.	.	.	.
4G	1r	.	.	.
4F	.	.	.	.
2G	.	.	.	.
=27	=27	=27	=27	=27
0A	2r	0E	0AA	1.c
.	2.C	.	.	.
.	4D	.	.	.
.	2E	.	.	2.c
1A	2F	1A	1AA	.
.	.	.	.	4d
.	2C	.	.	2e
=28	=28	=28	=28	=28
1A	4F	1A	1FF	2.f
.	4G	.	.	.
.	4A	.	.	.
.	4B	.	.	4g
1r	0c	0F	2FF	4a
.	.	.	.	4b
.	.	.	2.FF	2a
1A	.	.	.	4r
.	.	.	4GG	8gL
.	.	.	.	8f
.	.	.	4AA	8g
.	.	.	.	8f
.	.	.	4BB	8e
.	.	.	.	8dJ
=29	=29	=29	=29	=29
0G	1c	0E	0C	2e
.	.	.	.	8gL
.	.	.	.	8f
.	.	.	.	8g
.	.	.	.	8aJ
.	2r	.	.	4g
.	.	.	.	4f
.	2.c	.	.	4e
.	.	.	.	4d
1G	.	1E	1C	1e
.	4B	.	.	.
.	2c	.	.	.
=30	=30	=30	=30	=30
0F	2.A	1C	0FF	2f
.	.	.	.	2.cc
.	4G	.	.	.
.	2.A	1D	.	.
.	.	.	.	4b
.	.	.	.	2a
.	4B-X	.	.	.
1F	1c	1C	1FF	4r
.	.	.	.	8g/L
.	.	.	.	8a/
.	.	.	.	8b/
.	.	.	.	8a/
.	.	.	.	8g/
.	.	.	.	8fJ/
=31	=31	=31	=31	=31
0G	0c	2r	0C	8eL
.	.	.	.	8d
.	.	.	.	8e
.	.	.	.	8fJ
.	.	2E	.	4e
.	.	.	.	4d
.	.	2.E	.	4e
.	.	.	.	4f
.	.	.	.	4g
.	.	4F	.	4a
1G	1c	2G	1C	4g
.	.	.	.	4f
.	.	2E	.	8gL
.	.	.	.	8f
.	.	.	.	8e
.	.	.	.	8dJ
=32	=32	=32	=32	=32
0A	1r	1E	1AA	8cL
.	.	.	.	8B
.	.	.	.	8c
.	.	.	.	8dJ
.	.	.	.	4c
.	.	.	.	4d
.	2r	2r	1AA	1.e
.	2c	2E	.	.
1G	4c	1E	2.C	.
.	4B	.	.	.
.	4A	.	.	2e
.	4G	.	4BB	.
=33	=33	=33	=33	=33
2A	2F	2C	2AA	2f
2B-X	2G	2D	2GG	8dL
.	.	.	.	8c
.	.	.	.	8d
.	.	.	.	8eJ
2r	2r	2r	2BB-X	4d
.	.	.	.	4c
2A	2.F	1C	2FF	4B-i
.	.	.	.	4A
2r	.	.	1GG	1B-i
.	4E	.	.	.
2G	8F\L	2BB-i	.	.
.	8E\	.	.	.
.	8D\	.	.	.
.	8E\J	.	.	.
=34	=34	=34	=34	=34
0A	0F	1C	0FF	2r
.	.	.	.	8cc\L
.	.	.	.	8b\
.	.	.	.	8cc\
.	.	.	.	8dd\J
.	.	2r	.	4cc
.	.	.	.	4b
.	.	2C	.	4a
.	.	.	.	4g
1A	2r	2F	1FF	8a/L
.	.	.	.	8g/
.	.	.	.	8a/
.	.	.	.	8b/J
.	2A	2F	.	4a
.	.	.	.	4g
=35	=35	=35	=35	=35
0.r	2d	2D	0.r	8fL
.	.	.	.	8e
.	.	.	.	8f
.	.	.	.	8gJ
.	2d	2D	.	4f
.	.	.	.	4e
.	2B-X	2.G	.	2d
.	2B-X	.	.	2d
.	.	4F	.	.
.	2G	4E	.	2.g
.	.	4D	.	.
.	2G	2E	.	.
.	.	.	.	4f
=36	=36	=36	=36	=36
0.r	2.c	1C	0.r	4e
.	.	.	.	4d
.	.	.	.	2e
.	4B-X	.	.	.
.	4A	1r	.	2c
.	4G	.	.	.
.	2.A	.	.	8fL
.	.	.	.	8e
.	.	.	.	8f
.	.	.	.	8gJ
.	.	1r	.	4f
.	4G	.	.	4g
.	2F	.	.	4a
.	.	.	.	4b-i
=37	=37	=37	=37	=37
0.r	4E	0.r	0.r	2.g
.	4F	.	.	.
.	1G	.	.	.
.	.	.	.	4f
.	.	.	.	4e
.	.	.	.	4d
.	8AL	.	.	2.c
.	8G	.	.	.
.	8F	.	.	.
.	8EJ	.	.	.
.	1D	.	.	.
.	.	.	.	4B
.	.	.	.	8cL
.	.	.	.	8B
.	.	.	.	8A
.	.	.	.	8BJ
=38	=38	=38	=38	=38
1r	2C	0F	0FF	4c
.	.	.	.	4A
.	2.A	.	.	8cL
.	.	.	.	8B
.	.	.	.	8c
.	.	.	.	8dJ
1r	.	.	.	4c
.	4G	.	.	4B
.	4F	.	.	4A
.	4E	.	.	4G
1C	4F	1F	1FF	4A
.	4E	.	.	4G
.	4F	.	.	4A
.	4G	.	.	4B
=39	=39	=39	=39	=39
0C	0A	1E	0AA	8cL
.	.	.	.	8B
.	.	.	.	8c
.	.	.	.	8dJ
.	.	.	.	4c
.	.	.	.	4B
.	.	2r	.	4c
.	.	.	.	4B
.	.	2C	.	8cL
.	.	.	.	8B
.	.	.	.	8A
.	.	.	.	8BJ
1C	1A	2E	1AA	1c
.	.	2F	.	.
=40	=40	=40	=40	=40
2.D	1r	2G	2GG	2B-X
.	.	2F	1BB-X	2.d
4C	.	.	.	.
4D	1r	2D	.	.
4E	.	.	.	4c
2.F	.	1C	2FF	8dL
.	.	.	.	8c
.	.	.	.	8B-i
.	.	.	.	8AJ
.	1G	.	1GG	1B-X
4E	.	.	.	.
8FL	.	2BB-i	.	.
8E	.	.	.	.
8D	.	.	.	.
8EJ	.	.	.	.
=41	=41	=41	=41	=41
1F	1c	0C	0FF	2A
.	.	.	.	8cL
.	.	.	.	8B
.	.	.	.	8c
.	.	.	.	8dJ
1r	2A	.	.	4c
.	.	.	.	4B
.	2.c	.	.	4A
.	.	.	.	4G
1r	.	1C	1FF	1F
.	4B-X	.	.	.
.	4A	.	.	.
.	4G	.	.	.
=42	=42	=42	=42	=42
0D	2F	0D	0BB-X	2r
.	2.d	.	.	8fL
.	.	.	.	8e
.	.	.	.	8f
.	.	.	.	8gJ
.	.	.	.	4f
.	4c	.	.	4e
.	4B-X	.	.	2f
.	4A	.	.	.
4F	1B-X	1D	1BB-X	1d
4E	.	.	.	.
4F	.	.	.	.
4G	.	.	.	.
=43	=43	=43	=43	=43
0A	1r	1E	0AA	8cL
.	.	.	.	8B
.	.	.	.	8c
.	.	.	.	8dJ
.	.	.	.	4c
.	.	.	.	4d
.	1r	2.C	.	4e
.	.	.	.	4f
.	.	.	.	2.e
.	.	4D	.	.
1A	1c	1E	1AA	.
.	.	.	.	4d
.	.	.	.	8eL
.	.	.	.	8d
.	.	.	.	8c
.	.	.	.	8BJ
=44	=44	=44	=44	=44
0.r	1c	2F	0FF	2A
.	.	4E	.	2c
.	.	4D	.	.
.	2r	1C	.	4d
.	.	.	.	4c
.	2F	.	.	4B
.	.	.	.	4A
.	4A	1F	1FF	2.c
.	4G	.	.	.
.	4A	.	.	.
.	4B	.	.	4d
=45	=45	=45	=45	=45
0G	1c	0E	0C	4e
.	.	.	.	4f
.	.	.	.	4g
.	.	.	.	4a
.	2r	.	.	4g
.	.	.	.	4f
.	2c	.	.	8gL
.	.	.	.	8f
.	.	.	.	8e
.	.	.	.	8dJ
1G	4r	1r	1C	1e
.	4B	.	.	.
.	2c	.	.	.
=46	=46	=46	=46	=46
2F	2A	2.F	2.D	1f
1A	1F	.	.	.
.	.	4E	4C	.
.	.	2F	2D	8gL
.	.	.	.	8f
.	.	.	.	8e
.	.	.	.	8fJ
2.G	2B-X	2D	2BB-X	2g
.	1c	1C	1AA	1a
4F#X	.	.	.	.
8GL	.	.	.	.
8F#X	.	.	.	.
8E	.	.	.	.
8F#XJ	.	.	.	.
=47	=47	=47	=47	=47
0G	2.B-X	1D	0GG	0d
.	4A	.	.	.
.	4B-X	1D	.	.
.	4A	.	.	.
.	4B-X	.	.	.
.	4c	.	.	.
1B-X	1d	1G	1GG	2r
.	.	.	.	2g
=48	=48	=48	=48	=48
2A	2r	2A	0.r	4f
.	.	.	.	4g
2c	4r	2F	.	2.a
.	4A	.	.	.
2B-X	2B-X	2G	.	.
.	.	.	.	4g
2G	2c	2E	.	2.g
1A	1d	1D	.	.
.	.	.	.	4f#i
.	.	.	.	8gL
.	.	.	.	8f#i
.	.	.	.	8e
.	.	.	.	8f#XJ
=49	=49	=49	=49	=49
0G	2B-X	1D	0GG	1g
.	4d	.	.	.
.	4c	.	.	.
.	4d	2r	.	2r
.	4c	.	.	.
.	4B-i	2D	.	2g
.	4A	.	.	.
1r	1B-	2.G	1GG	2d
.	.	.	.	2g
.	.	4F	.	.
=50	=50	=50	=50	=50
0G	0c	1E	1C	4r
.	.	.	.	4f
.	.	.	.	8gL
.	.	.	.	8f
.	.	.	.	8e
.	.	.	.	8dJ
.	.	1r	1C	4e
.	.	.	.	4f
.	.	.	.	4g
.	.	.	.	4e
1F	1A	1r	1D	2f
.	.	.	.	8gL
.	.	.	.	8f
.	.	.	.	8e
.	.	.	.	8fJ
=51	=51	=51	=51	=51
1G	1B-X	0.r	1GG	2e
.	.	.	.	2d
0E	0A	.	1AA	4r
.	.	.	.	8cL
.	.	.	.	8d
.	.	.	.	8e
.	.	.	.	8d
.	.	.	.	8c
.	.	.	.	8BJ
.	.	.	1AA	4c
.	.	.	.	4d
.	.	.	.	4B
.	.	.	.	4c#X
=52	=52	=52	=52	=52
0D	2F	2.F	2.BB-X	0d
.	2B-X	.	.	.
.	.	4E	4C	.
.	2A	2F	2D	.
.	2G	1G	2GG	.
1D	2A	.	1D	1r
.	8B-XL	2F#X	.	.
.	8A	.	.	.
.	8G	.	.	.
.	8AJ	.	.	.
=53	=53	=53	=53	=53
0.r	2.G	1G	0GG	0d
.	4F	.	.	.
.	4G	2r	.	.
.	4A	.	.	.
.	4B-X	2G	.	.
.	4A	.	.	.
.	4B-X	4r	1GG	2.d
.	4A	4F	.	.
.	4B-X	2G	.	.
.	4c	.	.	4e
=54	=54	=54	=54	=54
0.r	1d	2.D	0.r	8fL
.	.	.	.	8e
.	.	.	.	8f
.	.	.	.	8gJ
.	.	.	.	4f
.	.	4E	.	4g
.	2c	2F	.	4a
.	.	.	.	4b-i
.	2B-X	2G	.	2.g
.	1A	1D	.	.
.	.	.	.	4f#i
.	.	.	.	8gL
.	.	.	.	8f#i
.	.	.	.	8e
.	.	.	.	8f#J
=55	=55	=55	=55	=55
1D	2G	0G	0GG	2g
.	2.B-X	.	.	8aL
.	.	.	.	8g
.	.	.	.	8f
.	.	.	.	8eJ
2D	.	.	.	1d
.	4A	.	.	.
2D	2G	.	.	.
4D	2.B-X	1G	1GG	1g
4C	.	.	.	.
4D	.	.	.	.
4E	4c	.	.	.
=56	=56	=56	=56	=56
2.F	2d	1A	1D	1f
.	8eL	.	.	.
.	8d	.	.	.
4G	8c	.	.	.
.	8B-XJ	.	.	.
2A	2A	2F	2D	1d
2G	2B-X	2G	2BB-X	.
4r	1c	1A	1AA	1r
4F#X	.	.	.	.
8GL	.	.	.	.
8F#X	.	.	.	.
8E	.	.	.	.
8F#XJ	.	.	.	.
=57	=57	=57	=57	=57
0.G	2.B-X	1D	0GG	2r
.	.	.	.	2d
.	4A	.	.	.
.	2.B-X	2r	.	4e
.	.	.	.	4d
.	.	2D	.	2.g
.	4c	.	.	.
.	1d	2D	1GG	.
.	.	.	.	8fL
.	.	.	.	8g
.	.	2BB-X	.	8a
.	.	.	.	8g
.	.	.	.	8f
.	.	.	.	8eJ
=58	=58	=58	=58	=58
0.D	1.D	0B-X	0BB-X	2d
.	.	.	.	8fL
.	.	.	.	8e
.	.	.	.	8f
.	.	.	.	8gJ
.	.	.	.	4f
.	.	.	.	4e
.	2D	.	.	4d
.	.	.	.	4c
.	4r	1B-X	1BB-X	1d
.	4E	.	.	.
.	2F	.	.	.
=59	=59	=59	=59	=59
0E	2C	2.G	0C	1.e
.	1c	.	.	.
.	.	4F	.	.
.	.	2G	.	.
.	2c	2A	.	2c
1E	2.c	1G	1C	2c
.	.	.	.	2c
.	4B-X	.	.	.
=60	=60	=60	=60	=60
2D	2A	0.r	2.D	8fL
.	.	.	.	8e
.	.	.	.	8f
.	.	.	.	8gJ
1F	1B-X	.	.	4f
.	.	.	4C	4e
.	.	.	2D	2d
2E	2.A	.	2AA	2c
1D	.	.	1BB-X	1d
.	4G	.	.	.
.	8AL	.	.	.
.	8G	.	.	.
.	8F	.	.	.
.	8GJ	.	.	.
=61	=61	=61	=61	=61
0E	0A	2r	0AA	4c
.	.	.	.	4d
.	.	2E	.	4e
.	.	.	.	4f
.	.	2.C	.	4e
.	.	.	.	4d
.	.	.	.	8eL
.	.	.	.	8d
.	.	4D	.	8c
.	.	.	.	8BJ
1E	1A	2E	1AA	1c
.	.	2C	.	.
=62	=62	=62	=62	=62
0F	2.A	0C	0FF	2r
.	.	.	.	2.f
.	4G	.	.	.
.	4A	.	.	.
.	4B	.	.	4g
.	2c	.	.	2a
1E	4r	1r	1C	1g
.	4B	.	.	.
.	2c	.	.	.
=63	=63	=63	=63	=63
1F	0A	0.r	1D	2f
.	.	.	.	8gL
.	.	.	.	8f
.	.	.	.	8e
.	.	.	.	8dJ
0E	.	.	1AA	4c
.	.	.	.	4d
.	.	.	.	4e
.	.	.	.	4d
.	1A	.	1AA	4d
.	.	.	.	4c#i
.	.	.	.	8dL
.	.	.	.	8c#i
.	.	.	.	8B
.	.	.	.	8c#iJ
=64	=64	=64	=64	=64
0D	1r	1F	2.BB-X	8dL
.	.	.	.	8c
.	.	.	.	8d
.	.	.	.	8eJ
.	.	.	.	4d
.	.	.	4C	4e
.	4d	2D	2D	2f
.	4c	.	.	.
.	4B-X	2G	2GG	2.g
.	4A	.	.	.
1D	1B-X	4r	1GG	.
.	.	4A	.	4f
.	.	2B-X	.	4d
.	.	.	.	4e
=65	=65	=65	=65	=65
2.A	1c	2A	2AA	8fL
.	.	.	.	8e
.	.	.	.	8f
.	.	.	.	8dJ
.	.	2E	2C	2.e
4G	.	.	.	.
2F	2A	2F	2D	.
.	.	.	.	4d
2D	2G	2G	2BB-X	2.d
1E	1A	1E	1AA	.
.	.	.	.	4c#i
.	.	.	.	8dL
.	.	.	.	8c#i
.	.	.	.	8B
.	.	.	.	8c#iJ
=66	=66	=66	=66	=66
0.Fl	0.Al	0.Fl	0.Dl	0.dl
==	==	==	==	==
*-	*-	*-	*-	*-
!!!RDF**kern: l=long note in original notation
!!!system-decoration: s1,s2,s3,s4,s5
!!!RDF**kern: i = editorial accidental
!!!ENC: Chris Gage 06-30-2014
!!!END: 2020/10/21/
!!!EED: Jesse Rodin
!!!EEV: 2020/10/23/
!!attribution-level@Jos: 4a (the rest [double question mark])
!!!ONB: Translated from MusicXML and edited on 2020/10/23/ by Craig Sapp
!!muse2ps: C^Intabulation in BerlS 40026\n@{SCT}^i2I150v85,85,85,85,150c100
